X:1
T:Baby Rory's
L:1/8
M:9/8
I:linebreak $
K:G
V:1 treble 
V:1
|: A3 AGE G3 | A3 AGE GED | A3 AGE G2 E | D3 DEF GED :: GAB deB d2 B |$ GAB dge dBA | %6
 GAB deB d2 B | A3 AGE GED | GAB deB d2 B | GAB dge dBA |$ GAB deB d2 B | ABA AGE GED || %12
